X:147
M:6/8
L:1/8
K:A
|: EGB dcB | Ace aec | EGB dcB | cec Ace | fdB Gee | cAF D[B,B]d | ecA fed | cdB A3 :|

